X:1
L:1/8
Q:1/8=180
M:6/8
K:A
""A"" Ace ecA |""D"" (d2 f) (f2 a) |""A"" Ace ecA |""E7"" (G2 B) (B2 c) |""A"" Ace ecA |""D"" (d2 f) (f2 a) |1 
 ecA""E7"" dBG |""A"" A3 A3 :|2""E"" gfe""B7"" fe^d |""E"" e3""E7"" efg |:""A"" aec AEC |""D"" (d2 f) (f2 a) | 
""A"" ecA ecA |""E7/B"" (G2 B)""E7"" Bcd |""A"" ecA ecA |""D"" (d2 f) fga |""A"" ecA""E7"" dBG |""A"" vA3 z3 :|
